images/icon-cta-time.svg

<svg width="40" height="40" viewBox="0 0 40 40" fill="none" xmlns="http://www.w3.org/2000/svg">
<path fill-rule="evenodd" clip-rule="evenodd" d="M19.1835 1.0405C14.4805 1.34131 9.98104 3.38718 6.65374 6.73763C3.69352 9.7185 1.80071 13.5099 1.15495 17.7515C0.947383 19.115 0.948514 21.7658 1.15738 23.1887C2.22577 30.4686 7.21802 36.5257 14.0978 38.889C15.9512 39.5257 18.2698 39.9532 19.8693 39.9532C20.382 39.9532 20.4903 39.9245 20.6752 39.7395C20.9526 39.4622 20.9578 39.0564 20.6877 38.7863C20.5132 38.6118 20.3651 38.5768 19.5776 38.5239C17.4744 38.3826 15.5699 37.9719 13.8366 37.2855C9.5821 35.6009 6.18211 32.4675 4.21356 28.417C3.03487 25.9916 2.47817 23.766 2.37352 21.06C2.15237 15.3414 4.79568 9.66356 9.29609 6.19034C14.8386 1.91307 22.1235 1.15813 28.4201 4.20847C30.2413 5.09079 31.906 6.31153 33.4293 7.88194C34.8503 9.34673 35.7534 10.6208 36.6495 12.4248C37.9165 14.9758 38.4986 17.4998 38.5004 20.4505C38.5021 23.3745 37.9553 25.7621 36.6858 28.3735C36.1879 29.3977 34.9474 31.4207 34.8172 31.4208C34.792 31.4208 34.8209 30.808 34.8814 30.0592C34.9694 28.9709 34.9696 28.652 34.8829 28.471C34.6007 27.8824 33.78 27.9694 33.6092 28.6061C33.5146 28.959 33.2496 32.1893 33.2513 32.9706C33.253 33.7554 33.6424 34.2079 34.3145 34.2061C34.4725 34.2057 35.5813 33.9525 36.7784 33.6435C38.6344 33.1645 38.9839 33.0485 39.1509 32.8559C39.2587 32.7317 39.3468 32.5395 39.3468 32.4289C39.3468 32.1686 39.057 31.8026 38.7996 31.738C38.6864 31.7096 38.03 31.8375 37.3009 32.0303C36.5876 32.2188 35.9903 32.3594 35.9738 32.3429C35.9571 32.3264 36.1614 32.0093 36.4275 31.6383C38.1441 29.2457 39.338 26.1605 39.7964 22.9319C39.9613 21.7711 39.9373 18.9738 39.7516 17.7172C39.3333 14.8867 38.2357 12.0294 36.67 9.69481C32.7556 3.85812 26.1609 0.59429 19.1835 1.0405ZM18.5929 6.91255C14.7717 7.53489 11.4962 9.62055 9.38455 12.7756C6.3343 17.3332 6.33569 23.1314 9.38812 27.6961C11.3394 30.6143 14.414 32.6741 17.9632 33.4412C19.243 33.7178 21.8441 33.7164 23.1308 33.4386C26.9938 32.6045 30.1849 30.3219 32.1595 26.9802C34.0025 23.8613 34.4792 20.0623 33.4711 16.5268C32.1176 11.7806 28.1202 8.09028 23.1962 7.04175C22.0461 6.79684 19.7063 6.73119 18.5929 6.91255ZM18.4443 8.39649C17.3134 8.60127 15.233 9.32557 15.2307 9.51528C15.2301 9.55847 15.406 9.89942 15.6215 10.273C15.837 10.6466 16.0133 11.0538 16.0133 11.178C16.0133 11.5033 15.6515 11.8311 15.2924 11.8311C14.9385 11.8311 14.7683 11.6617 14.3078 10.8516C14.1241 10.5283 13.9357 10.2639 13.8894 10.2639C13.72 10.2639 12.5339 11.2424 11.9031 11.9026C10.9812 12.8676 10.4741 13.5706 10.6266 13.6722C10.6922 13.7158 10.9904 13.8907 11.2892 14.0608C12.1767 14.566 12.3984 15.0185 11.9687 15.4482C11.6463 15.7706 11.2933 15.7269 10.5282 15.2701C10.169 15.0557 9.8494 14.8798 9.81797 14.8793C9.72907 14.8778 9.25413 16.0709 9.0194 16.8857C8.8309 17.54 8.71789 18.1263 8.58129 19.1586L8.53915 19.4773L9.45429 19.5068C10.3411 19.5355 10.3761 19.5442 10.5875 19.79C10.7578 19.9881 10.7937 20.1024 10.7517 20.3121C10.6485 20.8286 10.4515 20.9261 9.44437 20.9589L8.53915 20.9884L8.58129 21.3072C8.71789 22.3394 8.8309 22.9257 9.0194 23.58C9.25413 24.3949 9.72907 25.5879 9.81797 25.5864C9.8494 25.5859 10.169 25.4101 10.5282 25.1956C11.2933 24.7389 11.6463 24.6952 11.9687 25.0176C12.3984 25.4472 12.1767 25.8998 11.2892 26.405C10.9904 26.5751 10.6907 26.7509 10.6233 26.7956C10.3709 26.9633 12.1256 28.9409 13.3222 29.8372C13.5899 30.0378 13.846 30.2019 13.8913 30.2019C13.9366 30.2019 14.1241 29.9374 14.3078 29.6142C14.7683 28.804 14.9385 28.6347 15.2924 28.6347C15.6541 28.6347 16.0133 28.9624 16.0133 29.2923C16.0133 29.419 15.8217 29.848 15.5877 30.2456L15.1621 30.9687L15.7401 31.2312C16.8255 31.7241 18.7269 32.2027 19.6047 32.204L19.8442 32.2044V31.3298C19.8442 30.5172 19.8593 30.44 20.0579 30.2415C20.3406 29.9587 20.7408 29.9587 21.0235 30.2415C21.2224 30.4403 21.2372 30.5164 21.2372 31.3423V32.2295L21.7814 32.1787C22.9113 32.0732 24.363 31.6836 25.5203 31.1754L25.9289 30.9958L25.4987 30.2289C25.2621 29.8069 25.0684 29.3719 25.0683 29.262C25.068 28.9561 25.4411 28.6347 25.7965 28.6347C26.1521 28.6347 26.3619 28.8507 26.8448 29.7141L27.1637 30.2843L27.6177 29.9606C28.2812 29.4876 29.5259 28.2661 30.0755 27.5486C30.3383 27.2056 30.5532 26.9035 30.5532 26.8774C30.5532 26.8512 30.2407 26.6482 29.8587 26.4263C29.4767 26.2044 29.1011 25.9263 29.0239 25.8086C28.8474 25.5393 28.9261 25.1169 29.1865 24.9345C29.4977 24.7165 29.8464 24.7827 30.5624 25.1956C30.936 25.4111 31.2592 25.5874 31.2805 25.5874C31.3539 25.5874 31.9335 24.1204 32.1134 23.4794C32.2554 22.9731 32.5526 21.3365 32.5552 21.0462C32.5555 21.0146 32.1453 20.9755 31.6437 20.9591C30.839 20.9329 30.709 20.9066 30.538 20.7354C30.4106 20.608 30.3443 20.4357 30.3443 20.2329C30.3443 20.03 30.4106 19.8578 30.538 19.7303C30.7092 19.5591 30.8389 19.5329 31.6479 19.5066L32.564 19.4767L32.5103 19.0712C32.377 18.0643 32.1784 17.1521 31.9322 16.416C31.7113 15.7554 31.4008 15.019 31.2903 14.8933C31.2765 14.8776 30.9542 15.0441 30.5741 15.2633C30.1675 15.4979 29.7742 15.6619 29.6184 15.6619C29.0479 15.6619 28.7247 15.0364 29.069 14.5986C29.17 14.4703 29.5453 14.2037 29.9029 14.0062C30.2606 13.8087 30.5532 13.6254 30.5532 13.5987C30.5532 13.572 30.3593 13.2885 30.1223 12.9688C29.6268 12.3003 28.2836 10.9789 27.6177 10.5048L27.1637 10.1814L26.8448 10.7516C26.3619 11.615 26.1521 11.8311 25.7965 11.8311C25.4411 11.8311 25.068 11.5097 25.0683 11.2037C25.0684 11.0939 25.261 10.6607 25.4963 10.2412C25.9808 9.37755 26.0199 9.48237 25.0681 9.09258C24.2711 8.76617 22.6896 8.36898 21.9028 8.29767L21.2372 8.23734V9.12401C21.2372 9.94922 21.2224 10.0254 21.0235 10.2243C20.7408 10.507 20.3406 10.507 20.0579 10.2243C19.8593 10.0258 19.8442 9.94852 19.8442 9.13594V8.26137L19.4741 8.2692C19.2706 8.27347 18.8072 8.33076 18.4443 8.39649Z" fill="white"/>
<path fill-rule="evenodd" clip-rule="evenodd" d="M19.1835 1.0405C14.4805 1.34131 9.98104 3.38718 6.65374 6.73763C3.69352 9.7185 1.80071 13.5099 1.15495 17.7515C0.947383 19.115 0.948514 21.7658 1.15738 23.1887C2.22577 30.4686 7.21802 36.5257 14.0978 38.889C15.9512 39.5257 18.2698 39.9532 19.8693 39.9532C20.382 39.9532 20.4903 39.9245 20.6752 39.7395C20.9526 39.4622 20.9578 39.0564 20.6877 38.7863C20.5132 38.6118 20.3651 38.5768 19.5776 38.5239C17.4744 38.3826 15.5699 37.9719 13.8366 37.2855C9.5821 35.6009 6.18211 32.4675 4.21356 28.417C3.03487 25.9916 2.47817 23.766 2.37352 21.06C2.15237 15.3414 4.79568 9.66356 9.29609 6.19034C14.8386 1.91307 22.1235 1.15813 28.4201 4.20847C30.2413 5.09079 31.906 6.31153 33.4293 7.88194C34.8503 9.34673 35.7534 10.6208 36.6495 12.4248C37.9165 14.9758 38.4986 17.4998 38.5004 20.4505C38.5021 23.3745 37.9553 25.7621 36.6858 28.3735C36.1879 29.3977 34.9474 31.4207 34.8172 31.4208C34.792 31.4208 34.8209 30.808 34.8814 30.0592C34.9694 28.9709 34.9696 28.652 34.8829 28.471C34.6007 27.8824 33.78 27.9694 33.6092 28.6061C33.5146 28.959 33.2496 32.1893 33.2513 32.9706C33.253 33.7554 33.6424 34.2079 34.3145 34.2061C34.4725 34.2057 35.5813 33.9525 36.7784 33.6435C38.6344 33.1645 38.9839 33.0485 39.1509 32.8559C39.2587 32.7317 39.3468 32.5395 39.3468 32.4289C39.3468 32.1686 39.057 31.8026 38.7996 31.738C38.6864 31.7096 38.03 31.8375 37.3009 32.0303C36.5876 32.2188 35.9903 32.3594 35.9738 32.3429C35.9571 32.3264 36.1614 32.0093 36.4275 31.6383C38.1441 29.2457 39.338 26.1605 39.7964 22.9319C39.9613 21.7711 39.9373 18.9738 39.7516 17.7172C39.3333 14.8867 38.2357 12.0294 36.67 9.69481C32.7556 3.85812 26.1609 0.59429 19.1835 1.0405Z" fill="#1E84B5"/>
<path d="M19.4531 12.571L19.6449 12.3793C19.7658 12.2584 19.9259 12.1875 20.0781 12.1875C20.2303 12.1875 20.3905 12.2584 20.5113 12.3793L20.7031 12.571V16.055C20.7031 19.1285 20.7182 19.5684 20.8311 19.7891C20.9015 19.9266 21.5167 20.9912 22.1983 22.1548C23.067 23.638 23.4375 24.342 23.4375 24.5095C23.4375 24.817 23.2288 25.0652 22.9201 25.1248C22.722 25.163 22.6319 25.1299 22.441 24.9492C22.1944 24.7156 19.7299 20.5504 19.559 20.0781C19.4846 19.8728 19.4591 18.904 19.4566 16.1879L19.4531 12.571Z" fill="white"/>
</svg>

<svg xmlns="http://www.w3.org/2000/svg" width="40" height="40" fill="none" viewBox="0 0 40 40"><path fill="#fff" fill-rule="evenodd" d="M19.184 1.04a19.5 19.5 0 0 0-12.53 5.698c-2.96 2.98-4.853 6.772-5.5 11.014-.207 1.363-.205 4.014.003 5.437 1.069 7.28 6.061 13.337 12.94 15.7 1.854.637 4.173 1.064 5.772 1.064.513 0 .621-.029.806-.214.278-.277.283-.683.013-.953-.175-.174-.323-.21-1.11-.262-2.104-.141-4.008-.552-5.741-1.239-4.255-1.684-7.655-4.817-9.623-8.868-1.18-2.425-1.736-4.651-1.84-7.357-.222-5.719 2.422-11.396 6.922-14.87C14.84 1.913 22.124 1.158 28.42 4.208c1.821.883 3.486 2.104 5.01 3.674 1.42 1.465 2.323 2.739 3.22 4.543 1.267 2.55 1.849 5.075 1.85 8.026.002 2.924-.545 5.311-1.814 7.922-.498 1.025-1.739 3.048-1.869 3.048-.025 0 .004-.613.064-1.362.088-1.088.089-1.407.002-1.588-.282-.589-1.103-.502-1.274.135-.094.353-.36 3.583-.358 4.365.002.784.391 1.237 1.064 1.235.157 0 1.266-.254 2.463-.562 1.856-.48 2.206-.596 2.373-.788.108-.124.196-.317.196-.427 0-.26-.29-.626-.547-.691-.114-.028-.77.1-1.5.292-.712.189-1.31.33-1.326.313s.187-.334.454-.705c1.716-2.392 2.91-5.478 3.368-8.706.165-1.16.141-3.958-.044-5.215-.419-2.83-1.516-5.688-3.082-8.022-3.914-5.837-10.51-9.1-17.487-8.654m-.591 5.873c-3.821.622-7.097 2.708-9.208 5.863-3.05 4.557-3.05 10.355.003 14.92 1.951 2.918 5.026 4.978 8.575 5.745 1.28.277 3.881.275 5.168-.002 3.863-.834 7.054-3.117 9.029-6.459 1.843-3.119 2.32-6.918 1.311-10.453-1.353-4.746-5.35-8.437-10.275-9.485-1.15-.245-3.49-.31-4.603-.13m-.149 1.483c-1.13.205-3.211.93-3.213 1.12 0 .042.175.383.39.757s.392.78.392.905c0 .325-.362.653-.72.653-.354 0-.525-.17-.985-.98-.184-.323-.372-.587-.419-.587-.169 0-1.355.978-1.986 1.639-.922.965-1.429 1.668-1.276 1.77.065.043.363.218.662.388.888.505 1.11.957.68 1.387-.323.323-.676.279-1.44-.178-.36-.214-.68-.39-.711-.39-.089-.002-.564 1.19-.799 2.006-.188.654-.301 1.24-.438 2.273l-.042.318.915.03c.887.028.922.037 1.133.283.17.198.207.312.165.522-.104.517-.3.614-1.308.647l-.905.03.042.318c.137 1.032.25 1.619.438 2.273.235.815.71 2.008.799 2.006.031 0 .351-.176.71-.39.765-.457 1.118-.5 1.44-.178.43.43.209.882-.679 1.387a23 23 0 0 0-.666.39c-.252.168 1.503 2.146 2.7 3.042.267.2.523.365.568.365.046 0 .233-.265.417-.588.46-.81.63-.98.984-.98.362 0 .721.328.721.658 0 .127-.191.556-.425.954l-.426.723.578.262c1.086.493 2.987.972 3.865.973h.24v-.874c0-.813.014-.89.213-1.088a.656.656 0 0 1 .965 0c.2.198.214.274.214 1.1v.888l.544-.051c1.13-.106 2.582-.495 3.74-1.004l.408-.18-.43-.766c-.237-.422-.43-.857-.43-.967-.001-.306.372-.627.728-.627.355 0 .565.216 1.048 1.08l.319.57.454-.324c.663-.473 1.908-1.695 2.458-2.412.262-.343.477-.645.477-.672 0-.026-.312-.229-.694-.45-.382-.223-.758-.5-.835-.618-.177-.27-.098-.692.162-.875.312-.218.66-.151 1.376.262.374.215.697.391.718.391.074 0 .653-1.467.833-2.108.142-.506.44-2.142.442-2.433 0-.031-.41-.07-.911-.087-.805-.026-.935-.052-1.106-.224a.7.7 0 0 1-.194-.502.7.7 0 0 1 .194-.503c.171-.17.3-.197 1.11-.223l.916-.03-.054-.406c-.133-1.007-.332-1.919-.578-2.655-.22-.66-.531-1.397-.642-1.523-.014-.015-.336.151-.716.37-.407.235-.8.399-.956.399-.57 0-.893-.626-.549-1.063.101-.129.476-.395.834-.593s.65-.38.65-.407-.194-.31-.43-.63c-.496-.669-1.84-1.99-2.505-2.464l-.454-.324-.32.57c-.482.864-.692 1.08-1.047 1.08-.356 0-.729-.321-.729-.627 0-.11.193-.543.428-.963.485-.863.524-.759-.428-1.148-.797-.327-2.378-.724-3.165-.795l-.666-.06v.886c0 .825-.015.901-.213 1.1a.656.656 0 0 1-.966 0c-.199-.198-.214-.275-.214-1.088V8.26l-.37.008a9 9 0 0 0-1.03.127" clip-rule="evenodd"/><path fill="#1e84b5" fill-rule="evenodd" d="M19.184 1.04a19.5 19.5 0 0 0-12.53 5.698c-2.96 2.98-4.853 6.772-5.5 11.014-.207 1.363-.205 4.014.003 5.437 1.069 7.28 6.061 13.337 12.94 15.7 1.854.637 4.173 1.064 5.772 1.064.513 0 .621-.029.806-.214.278-.277.283-.683.013-.953-.175-.174-.323-.21-1.11-.262-2.104-.141-4.008-.552-5.741-1.239-4.255-1.684-7.655-4.817-9.623-8.868-1.18-2.425-1.736-4.651-1.84-7.357-.222-5.719 2.422-11.396 6.922-14.87C14.84 1.913 22.124 1.158 28.42 4.208c1.821.883 3.486 2.104 5.01 3.674 1.42 1.465 2.323 2.739 3.22 4.543 1.267 2.55 1.849 5.075 1.85 8.026.002 2.924-.545 5.311-1.814 7.922-.498 1.025-1.739 3.048-1.869 3.048-.025 0 .004-.613.064-1.362.088-1.088.089-1.407.002-1.588-.282-.589-1.103-.502-1.274.135-.094.353-.36 3.583-.358 4.365.002.784.391 1.237 1.064 1.235.157 0 1.266-.254 2.463-.562 1.856-.48 2.206-.596 2.373-.788.108-.124.196-.317.196-.427 0-.26-.29-.626-.547-.691-.114-.028-.77.1-1.5.292-.712.189-1.31.33-1.326.313s.187-.334.454-.705c1.716-2.392 2.91-5.478 3.368-8.706.165-1.16.141-3.958-.044-5.215-.419-2.83-1.516-5.688-3.082-8.022-3.914-5.837-10.51-9.1-17.487-8.654" clip-rule="evenodd"/><path fill="#fff" d="m19.453 12.571.192-.192a.63.63 0 0 1 .433-.191.63.63 0 0 1 .433.191l.192.192v3.484c0 3.073.015 3.513.128 3.734.07.138.686 1.202 1.367 2.366.869 1.483 1.24 2.187 1.24 2.354a.62.62 0 0 1-.518.616c-.198.038-.288.005-.479-.176-.247-.233-2.711-4.399-2.882-4.87-.074-.206-.1-1.175-.102-3.891z"/></svg>
